X: 82
T: The Boys of the Loch
R: reel
Z: 2005 John Chambers <jc:trillian.mit.edu>
M: C|
L: 1/8
K: D
dB \
| "D"AF~F2 A2AB | "D"defd "(A7)"efdB | "D"AFF2 "(Bm)"ABAF | "Em"EDEF "A7"E2DF |
| "D"AF~F2 A2AB | "D"defd "(A7)"efdB | "D"AFF2 "(Bm)"ABAF | "A7"EDEF  "D"D2z :|
|: de \
| "D"faag fgfe | "G"dBBA GBdB | "D"AFF2 "(Bm)"ABde | "(Em)"fdgf "A7"e2fg |
| "D"a2ag fgfe | "G"dBBA GBdB | "D"AFF2 "(Bm)"ABAF |   "A7"EDEF  "D"D2z :|

%%sep 1 1 500

